assets/img/toggle-theme-for-light.svg

<svg width="21" height="21" viewBox="0 0 21 21" fill="none" xmlns="http://www.w3.org/2000/svg">
<path d="M11.5678 3.68672H9.45095L9.02783 0H11.9915L11.5678 3.68672Z" fill="white"/>
<path d="M16.0791 6.44877L14.5872 4.9453L16.9033 2.04692L18.9911 4.15253L16.0791 6.44877Z" fill="white"/>
<path d="M17.2979 11.5992L17.3136 9.48033L21 9.08332L20.9779 12.0499L17.2979 11.5992Z" fill="white"/>
<path d="M14.5056 16.0938L16.019 14.6118L18.8969 16.951L16.7782 19.0257L14.5056 16.0938Z" fill="white"/>
<path d="M9.35137 17.276L11.4682 17.3076L11.8377 21L8.87402 20.9564L9.35137 17.276Z" fill="white"/>
<path d="M4.88193 14.4483L6.35117 15.9739L3.99346 18.8376L1.93652 16.7017L4.88193 14.4483Z" fill="white"/>
<path d="M3.73804 9.28088L3.69201 11.3991L0 11.7418L0.0649491 8.77593L3.73804 9.28088Z" fill="white"/>
<path d="M6.59648 4.8279L5.06166 6.28719L2.21777 3.90574L4.36677 1.86261L6.59648 4.8279Z" fill="white"/>
</svg>

<svg width="21" height="21" fill="none" xmlns="http://www.w3.org/2000/svg"><path d="M11.568 3.687H9.45L9.028 0h2.963l-.423 3.687zm4.512 2.762l-1.493-1.504 2.316-2.898 2.088 2.106-2.912 2.296zm1.218 5.151l.016-2.12L21 9.083l-.022 2.967-3.68-.45zm-2.792 4.494l1.513-1.482 2.878 2.339-2.119 2.075-2.272-2.932zm-5.155 1.182l2.117.032.37 3.692-2.964-.044.477-3.68zm-4.469-2.828l1.47 1.526-2.359 2.864-2.056-2.136 2.945-2.254zM3.738 9.28l-.046 2.12L0 11.741l.065-2.966 3.673.505zm2.858-4.452l-1.534 1.46-2.844-2.382 2.149-2.043 2.23 2.965z" fill="#fff"/></svg>
